symbols/web/timer_10_alt_1/materialsymbolsoutlined/timer_10_alt_1_wght500gradN25_24px.svg

<svg xmlns="http://www.w3.org/2000/svg" height="24" width="24"><path d="M8.775 17.525v-6.65H7.55v-1.8h3v8.45Zm4.525 0q-.75 0-1.262-.513-.513-.512-.513-1.262v-4.875q0-.75.513-1.275.512-.525 1.262-.525h1.275q.75 0 1.263.525.512.525.512 1.275v4.875q0 .75-.512 1.262-.513.513-1.263.513Zm0-1.775h1.275v-4.875H13.3v4.875ZM8.9 3.075v-2.05h6.2v2.05Zm3.1 19.05q-1.85 0-3.488-.712-1.637-.713-2.85-1.938-1.212-1.225-1.924-2.85Q3.025 15 3.025 13.15t.713-3.488Q4.45 8.025 5.662 6.8q1.213-1.225 2.85-1.925 1.638-.7 3.488-.7 1.6 0 2.988.5 1.387.5 2.612 1.425l1.425-1.425 1.45 1.45L19.05 7.55q.9 1.2 1.413 2.6.512 1.4.512 3 0 1.85-.712 3.475-.713 1.625-1.926 2.85-1.212 1.225-2.849 1.938-1.638.712-3.488.712Zm0-2.15q2.85 0 4.837-2 1.988-2 1.988-4.825 0-2.85-2-4.838-2-1.987-4.825-1.987-2.85 0-4.837 1.987Q5.175 10.3 5.175 13.15q0 2.825 2 4.825t4.825 2Z"/></svg>

<svg xmlns="http://www.w3.org/2000/svg" height="24" width="24"><path d="M8.775 17.525V10.875H7.55V9.075H10.55V17.525ZM13.3 17.525Q12.55 17.525 12.038 17.012Q11.525 16.5 11.525 15.75V10.875Q11.525 10.125 12.038 9.6Q12.55 9.075 13.3 9.075H14.575Q15.325 9.075 15.838 9.6Q16.35 10.125 16.35 10.875V15.75Q16.35 16.5 15.838 17.012Q15.325 17.525 14.575 17.525ZM13.3 15.75H14.575Q14.575 15.75 14.575 15.75Q14.575 15.75 14.575 15.75V10.875Q14.575 10.875 14.575 10.875Q14.575 10.875 14.575 10.875H13.3Q13.3 10.875 13.3 10.875Q13.3 10.875 13.3 10.875V15.75Q13.3 15.75 13.3 15.75Q13.3 15.75 13.3 15.75ZM8.9 3.075V1.025H15.1V3.075ZM12 22.125Q10.15 22.125 8.512 21.413Q6.875 20.7 5.662 19.475Q4.45 18.25 3.738 16.625Q3.025 15 3.025 13.15Q3.025 11.3 3.738 9.662Q4.45 8.025 5.662 6.8Q6.875 5.575 8.512 4.875Q10.15 4.175 12 4.175Q13.6 4.175 14.988 4.675Q16.375 5.175 17.6 6.1L19.025 4.675L20.475 6.125L19.05 7.55Q19.95 8.75 20.463 10.15Q20.975 11.55 20.975 13.15Q20.975 15 20.263 16.625Q19.55 18.25 18.337 19.475Q17.125 20.7 15.488 21.413Q13.85 22.125 12 22.125ZM12 19.975Q14.85 19.975 16.837 17.975Q18.825 15.975 18.825 13.15Q18.825 10.3 16.825 8.312Q14.825 6.325 12 6.325Q9.15 6.325 7.163 8.312Q5.175 10.3 5.175 13.15Q5.175 15.975 7.175 17.975Q9.175 19.975 12 19.975Z"/></svg>
